packages/assets/application-icons/03.Folder.svg

<?xml version="1.0" encoding="UTF-8"?>
<svg width="24px" height="24px" viewBox="0 0 24 24" version="1.1" xmlns="http://www.w3.org/2000/svg" xmlns:xlink="http://www.w3.org/1999/xlink">
    <title>03.Folder</title>
    <g id="Page-1" stroke="none" stroke-width="1" fill="none" fill-rule="evenodd">
        <g id="Artboard" transform="translate(-134.000000, -101.000000)" fill="#000000" fill-rule="nonzero">
            <g id="03.Folder" transform="translate(134.000000, 101.000000)">
                <path d="M20.578125,10.0625 C20.8111201,10.0625 21,10.249048 21,10.4791667 L21,18.9513889 C21,19.5650386 20.4963203,20.0625 19.875,20.0625 L4.125,20.0625 C3.50367966,20.0625 3,19.5650386 3,18.9513889 L3,10.4791667 C3,10.249048 3.18887988,10.0625 3.421875,10.0625 L20.578125,10.0625 Z M7.52913764,3.9375 C7.75471927,3.9375 7.97418159,4.02358117 8.15960136,4.1829059 L8.24934509,4.26861246 L9.31104255,5.39210182 C9.48433916,5.57548447 9.69633219,5.68776317 9.9190984,5.71610029 L10.03125,5.72321429 L19.875,5.72321429 C20.4574878,5.72321429 20.9365805,6.28535676 20.9941918,7.00572258 L21,7.15178571 L21,8.40178571 C21,8.69765254 20.8111201,8.9375 20.578125,8.9375 L3.421875,8.9375 C3.18887988,8.9375 3,8.69765254 3,8.40178571 L3,5.36607143 C3,4.62640435 3.4426872,4.01803269 4.00997529,3.94487555 L4.125,3.9375 L7.52913764,3.9375 Z" id="Folder"></path>
            </g>
        </g>
    </g>
</svg>

<svg width="24" height="24" viewBox="0 0 24 24" xmlns="http://www.w3.org/2000/svg"><path d="M20.578 10.063a.42.42 0 0 1 .422.416v8.472c0 .614-.504 1.111-1.125 1.111H4.125A1.118 1.118 0 0 1 3 18.953v-8.473a.42.42 0 0 1 .422-.416h17.156ZM7.53 3.936c.226 0 .445.087.63.246l.09.086 1.062 1.123c.173.183.385.296.608.324l.112.007h9.844c.582 0 1.062.562 1.12 1.283l.005.146v1.25c0 .296-.189.536-.422.536H3.422c-.233 0-.422-.24-.422-.536V5.366c0-.74.443-1.348 1.01-1.421l.115-.007h3.404Z" fill="#000" fill-rule="nonzero"/></svg>
